X: 38689
T: Straw Hat, The
R: reel
M: 4/4
K: Gmajor
D2|:"G"G3A B3d|eged gedB|G3A B3d|eged "D"AcBA|
"G"G3A B3d|eged gede|"C"g3e d3G|"D"AcBA "G"G2D2:|
"D"A2DB B2Dc|c2DB B2DA|A2DB B2Dc|cdcB AGFG|
A2DB B2Dc|c2DB B2d2|"C"g3e d3G|1 "D"AcBA "G"G2D2:|2 "D"AcBA "G"G4||

